ES1T1/13/aimg/a4.svg

<svg clip-rule="evenodd" fill-rule="evenodd" viewBox="0 0 200 200" xmlns="http://www.w3.org/2000/svg"><path d="m219.786 154.239v-4.878c3.222 1.245 5.881 1.867 7.976 1.867 1.948 0 3.512-.498 4.691-1.494s1.769-2.322 1.769-3.977c0-4.292-3.142-6.438-9.427-6.438h-1.999v-3.889l1.692-.022c5.888 0 8.833-1.926 8.833-5.779 0-2.944-1.817-4.416-5.449-4.416-2.388 0-4.937.608-7.647 1.823v-4.438c2.857-.981 5.867-1.472 9.031-1.472 3.354 0 5.98.688 7.877 2.065s2.845 3.281 2.845 5.713c0 3.838-2.395 6.548-7.185 8.13 5.479 1.26 8.218 4.189 8.218 8.789 0 2.915-1.098 5.222-3.296 6.921-2.197 1.7-5.185 2.549-8.965 2.549-3.208 0-6.196-.351-8.964-1.054z" fill="none" stroke="#aae1fa" stroke-width="2" transform="matrix(4.16667 0 0 4.16667 -859.993 -475.873)"/><path d="m.099-.005v-.109c.071.028.13.042.177.042.043 0 .078-.011.104-.033.026-.023.039-.052.039-.089 0-.095-.069-.143-.209-.143h-.044v-.086l.037-.001c.131 0 .196-.043.196-.128 0-.066-.04-.098-.121-.098-.053 0-.109.013-.17.04v-.098c.064-.022.131-.033.201-.033.075 0 .133.015.175.046.042.03.063.073.063.127 0 .085-.053.145-.159.18.121.028.182.093.182.196 0 .064-.024.116-.073.153-.049.038-.115.057-.199.057-.071 0-.138-.008-.199-.023z" fill="#fff" fill-rule="nonzero" transform="matrix(187.50015 0 0 187.50015 37.286884 167.794182)"/></svg>

<?xml version="1.0" encoding="UTF-8" standalone="no"?>
<!DOCTYPE svg PUBLIC "-//W3C//DTD SVG 1.1//EN" "http://www.w3.org/Graphics/SVG/1.1/DTD/svg11.dtd">
<svg width="100%" height="100%" viewBox="0 0 200 200" version="1.1" xmlns="http://www.w3.org/2000/svg" xmlns:xlink="http://www.w3.org/1999/xlink" xml:space="preserve" xmlns:serif="http://www.serif.com/" style="fill-rule:evenodd;clip-rule:evenodd;">
    <g transform="matrix(4.16667,0,0,4.16667,-859.993,-475.873)">
        <g>
            <path d="M219.786,154.239L219.786,149.361C223.008,150.606 225.667,151.228 227.762,151.228C229.71,151.228 231.274,150.73 232.453,149.734C233.632,148.738 234.222,147.412 234.222,145.757C234.222,141.465 231.08,139.319 224.795,139.319L222.796,139.319L222.796,135.43L224.488,135.408C230.376,135.408 233.321,133.482 233.321,129.629C233.321,126.685 231.504,125.213 227.872,125.213C225.484,125.213 222.935,125.821 220.225,127.036L220.225,122.598C223.082,121.617 226.092,121.126 229.256,121.126C232.61,121.126 235.236,121.814 237.133,123.191C239.03,124.568 239.978,126.472 239.978,128.904C239.978,132.742 237.583,135.452 232.793,137.034C238.272,138.294 241.011,141.223 241.011,145.823C241.011,148.738 239.913,151.045 237.715,152.744C235.518,154.444 232.53,155.293 228.75,155.293C225.542,155.293 222.554,154.942 219.786,154.239Z" style="fill:none;fill-rule:nonzero;stroke:rgb(170,225,250);stroke-width:2px;"/>
        </g>
        <g transform="matrix(45,0,0,45,215.347,154.48)">
            <path d="M0.099,-0.005L0.099,-0.114C0.17,-0.086 0.229,-0.072 0.276,-0.072C0.319,-0.072 0.354,-0.083 0.38,-0.105C0.406,-0.128 0.419,-0.157 0.419,-0.194C0.419,-0.289 0.35,-0.337 0.21,-0.337L0.166,-0.337L0.166,-0.423L0.203,-0.424C0.334,-0.424 0.399,-0.467 0.399,-0.552C0.399,-0.618 0.359,-0.65 0.278,-0.65C0.225,-0.65 0.169,-0.637 0.108,-0.61L0.108,-0.708C0.172,-0.73 0.239,-0.741 0.309,-0.741C0.384,-0.741 0.442,-0.726 0.484,-0.695C0.526,-0.665 0.547,-0.622 0.547,-0.568C0.547,-0.483 0.494,-0.423 0.388,-0.388C0.509,-0.36 0.57,-0.295 0.57,-0.192C0.57,-0.128 0.546,-0.076 0.497,-0.039C0.448,-0.001 0.382,0.018 0.298,0.018C0.227,0.018 0.16,0.01 0.099,-0.005Z" style="fill:white;fill-rule:nonzero;"/>
        </g>
    </g>
</svg>
